source/images/logo/logo-medium.svg

<svg id="logo-medium" width="82" height="36" viewBox="0 0 82 36" fill="none" xmlns="http://www.w3.org/2000/svg">
<path d="M76.936 17.24H81.136V24.2C80.176 24.888 79.072 25.416 77.824 25.784C76.576 26.152 75.328 26.336 74.08 26.336C72.32 26.336 70.736 25.968 69.328 25.232C67.92 24.48 66.816 23.44 66.016 22.112C65.216 20.784 64.816 19.28 64.816 17.6C64.816 15.92 65.216 14.416 66.016 13.088C66.816 11.76 67.928 10.728 69.352 9.992C70.776 9.24 72.384 8.864 74.176 8.864C75.744 8.864 77.152 9.128 78.4 9.656C79.648 10.184 80.688 10.944 81.52 11.936L78.496 14.672C77.36 13.424 76 12.8 74.416 12.8C72.976 12.8 71.816 13.24 70.936 14.12C70.056 14.984 69.616 16.144 69.616 17.6C69.616 18.528 69.816 19.36 70.216 20.096C70.616 20.816 71.176 21.384 71.896 21.8C72.616 22.2 73.44 22.4 74.368 22.4C75.28 22.4 76.136 22.216 76.936 21.848V17.24Z" fill="#333333"/>
<path fill-rule="evenodd" clip-rule="evenodd" d="M58 18C58 20.8737 57.4014 23.5901 56.3369 26H43C45.4627 22.2281 48 17.6606 48 13C48 7.00236 43.9385 1.95335 38.4158 0.453392C39.5681 0.156712 40.7678 0 42 0C50.8366 0 58 8.05888 58 18ZM44 13C44 8.02944 39.9706 4 35 4C28.3493 4 26 12.5071 26 18C26 27.9411 33.1634 36 42 36C46.7387 36 50.9962 33.6825 53.9259 30H35C35.3518 29.5514 35.7202 29.0891 36.0987 28.6142C39.6157 24.2012 44 18.6997 44 13Z" fill="#7859CF"/>
<path d="M1.85188 9.2H9.79588C11.6359 9.2 13.2679 9.544 14.6919 10.232C16.1159 10.92 17.2199 11.896 18.0039 13.16C18.7879 14.424 19.1799 15.904 19.1799 17.6C19.1799 19.296 18.7879 20.776 18.0039 22.04C17.2199 23.304 16.1159 24.28 14.6919 24.968C13.2679 25.656 11.6359 26 9.79588 26H1.85188V9.2ZM9.60388 22.208C11.0439 22.208 12.1959 21.8 13.0599 20.984C13.9399 20.168 14.3799 19.04 14.3799 17.6C14.3799 16.16 13.9399 15.032 13.0599 14.216C12.1959 13.4 11.0439 12.992 9.60388 12.992H6.60388V22.208H9.60388Z" fill="#333333"/>
</svg>

<svg viewBox="0 0 82 36" fill="none" xmlns="http://www.w3.org/2000/svg"><path d="M76.94 17.24h4.2v6.96c-.96.69-2.07 1.22-3.32 1.58-1.24.37-2.5.56-3.74.56a10.1 10.1 0 0 1-4.75-1.1 8.41 8.41 0 0 1-4.51-7.64c0-1.68.4-3.18 1.2-4.51a8.2 8.2 0 0 1 3.33-3.1 10.17 10.17 0 0 1 4.83-1.13c1.56 0 2.97.27 4.22.8a8.14 8.14 0 0 1 3.12 2.28l-3.02 2.73a5.33 5.33 0 0 0-4.08-1.87 4.7 4.7 0 0 0-3.48 1.32 4.66 4.66 0 0 0-1.32 3.48c0 .93.2 1.76.6 2.5.4.72.96 1.28 1.68 1.7a5 5 0 0 0 2.47.6c.91 0 1.77-.18 2.57-.55v-4.61Z" fill="#333"/><path fill-rule="evenodd" clip-rule="evenodd" d="M58 18c0 2.87-.6 5.59-1.66 8h-13.34c2.46-3.77 5-8.34 5-13a13 13 0 0 0-9.58-12.55c1.15-.3 2.35-.45 3.58-.45 8.84 0 16 8.06 16 18Zm-14-5a9 9 0 0 0-9-9c-6.65 0-9 8.5-9 14 0 9.94 7.16 18 16 18 4.74 0 9-2.32 11.93-6h-18.93l1.1-1.39c3.52-4.4 7.9-9.91 7.9-15.61Z" fill="#7859CF"/><path d="M1.85 9.2h7.95c1.84 0 3.47.34 4.9 1.03a7.77 7.77 0 0 1 3.3 2.93 8.25 8.25 0 0 1 1.18 4.44 7.77 7.77 0 0 1-4.49 7.37 11.12 11.12 0 0 1-4.9 1.03h-7.94v-16.8Zm7.75 13c1.44 0 2.6-.4 3.46-1.22a4.39 4.39 0 0 0 1.32-3.38c0-1.44-.44-2.57-1.32-3.38a4.83 4.83 0 0 0-3.46-1.23h-3v9.22h3Z" fill="#333"/></svg>
